**kern	**kern	**dynam	**kern	**kern
*part4	*part3	*part3	*part2	*part1
*staff4	*staff3	*	*staff2	*staff1
*I"Cello	*I"Viola	*	*I"2nd Violin	*I"1st Violin
*clefF4	*clefC3	*	*clefG2	*clefG2
*k[]	*k[]	*	*k[]	*k[]
*C:	*C:	*	*C:	*C:
*M6/8	*M6/8	*	*M6/8	*M6/8
=1	=1	=1	=1	=1
!	!	!	!	!LO:TX:a:B:t=Presto
4r	4r	.	4r	4r
8r	8r	.	8r	8r
4r	4r	.	4r	4r
16AALL 16E	16cLL	.	16eLL	16eLL
16AAJJ 16E	16cJJ	.	16eJJ	16eJJ
=2	=2	=2	=2	=2
8AA 8E	8c	.	8e	8e
8r	8r	.	8r	8r
8r	8r	.	8r	8r
4r	4r	.	4r	4r
!LO:TX:b:i:t=cresc.	!LO:TX:b:i:t=cresc.	!	!LO:TX:b:i:t=cresc.	!LO:TX:b:i:t=cresc.
16AALL 16E	16cLL	.	16eLL	16eLL
16AAJJ 16E	16cJJ	.	16eJJ	16eJJ
=3	=3	=3	=3	=3
8AA 8E	8c	.	8e	8e
8r	8r	.	8r	8r
8r	8r	.	8r	8r
4r	4r	.	4r	4r
16AALL 16E	16cLL	.	16eLL	16eLL
16AAJJ 16E	16cJJ	.	16eJJ	16eJJ
=4||	=4||	=4||	=4||	=4||
8AA 8E	8cL	.	8eL	8eL
8r	8c	.	8e	8a
8r	8BJ	.	8eJ	8g#XJ
4r	8dL	.	8fL	8bL
.	8c	.	8e	8a
!	!	!	!	!
16AALL 16E	8fJ	.	8g#XJ	8ddJ
16AAJJ 16E	.	.	.	.
=5	=5	=5	=5	=5
8AA 8E	8eL	.	8aL	8ccL
8r	8g#X	.	8dd	8ff
8r	8aJ	.	8ccJ	8eeJ
4r	8fL	.	8g#XL	8ddL
.	8e	.	8a	8cc
16AALL 16E	8dJ	.	8fJ	8bJ
16AAJJ 16E	.	.	.	.
=6	=6	=6	=6	=6
4AA 4E	8cL	.	8eL	8aL
.	8c	.	8e	8cc
8AA 8E	8cJ	.	8eJ	8bJ
4D	8dL	.	8fL	8aL
.	8A	.	8d	8g
8D	8AJ	.	8dJ	8fJ
=7	=7	=7	=7	=7
8E	8G#X'L	.	8B'L	[4.e
8r	(8G#	.	(8B	.
8r	8AJ	.	8cJ	.
4r	8BL	.	8dL	4e]
.	8A	.	8c	.
16ELL	8G#J)	.	8BJ)	16eLL
16EJJ	.	.	.	16eJJ
=8	=8	=8	=8	=8
8AA 8E	8AL	.	8cL	8eL
8r	8c	.	8e	8a
8r	8BJ	.	8eJ	8g#XJ
4r	8dL	.	8fL	8bL
.	8c	<	8e	8a
16AALL 16E	8fJ	.	8g#XJ	8ddJ
16AAJJ 16E	.	.	.	.
=9	=9	=9	=9	=9
8AA 8E	8eL	.	8aL	8ccL
8r	8g#X	.	8dd	8ff
8r	8aJ	.	8ccJ	8eeJ
4r	8fL	.	8g#XL	8ddL
.	8e	.	8a	8cc
16AALL 16E	8dJ	.	8fJ	8bJ
16AAJJ 16E	.	.	.	.
=10	=10	=10	=10	=10
!!linebreak:original
4AA 4E	8cL	.	8eL	8aL
.	8c	.	8e	8cc
8AA	8cJ	.	8eJ	8bJ
8DDL	8dL	.	8fL	8aL
8D	8A	.	8d	8g
8DDJ	8AJ	.	8dJ	8fJ
=11	=11	=11	=11	=11
8EEL	(8G#XL	.	(8BL	4e
8E	8A	.	8c	.
8EEJ	8BJ	.	8dJ	8e
8AA	8A)	.	8c)	8a
8r	8r	.	8r	8r
16EELL	16GnLL	.	16eLL	16eLL
16EEJJ	16GJJ	.	16eJJ	16eJJ
=12||	=12||	=12||	=12||	=12||
4.EE	8G#X'L	.	8e'L	4.ee
.	(8G#	.	(8e	.
.	8F#XJ)	.	8d#XJ)	.
4r	(8AL	.	(8f#XL	4r
.	8G#)	.	8e)	.
16EELL	(8c#XJ	.	(8aJ	16eLL
16EEJJ	.	.	.	16eJJ
=13	=13	=13	=13	=13
4.EE	8BL)	.	8g#XL)	4.ee
.	(8e	sf	(8cc#X	.
.	8d#XJ	sf	8bJ	.
4r	8c#XL	.	8aL	4r
.	8B	.	8g#	.
16EELL	8AJ)	.	8f#XJ)	16eLL
16EEJJ	.	.	.	16eJJ
=14	=14	=14	=14	=14
4EE	8G#X'L	.	8e'L	4ee
!	!	!LO:DY:a	!	!
.	(8B	sf	(8g#X	.
8EE	8AJ	.	8f#XJ	16eLL
.	.	.	.	16eJJ
4AA	8G#L	.	8eL	4ee
.	8F#X	.	8d#X	.
8AA	8EJ)	.	8c#XJ)	16bLL
.	.	.	.	16bJJ
=15	=15	=15	=15	=15
!	!	!	!	!
4BB	(8D#XL	.	(8BL	4bb
.	8E	.	8c#X	.
8BB	8F#XJ	.	8d#XJ	8bb
4EE	8G#X)	.	8e)	8b 8gg#X 8eee
.	8r	.	8r	8r
(8EE	16G#LL	.	16eLL	8r
.	16G#JJ	.	16eJJ	.
=16	=16	=16	=16	=16
8BB) 8G#X	8G#X'L	.	8e'L	8g#X 8b 8ee
8r	(8G#	.	(8e	8r
8r	8F#XJ)	.	8d#XJ)	8r
4r	(8AL	.	(8f#XL	4r
.	8G#)	.	8e)	.
(8EE	(8c#XJ	.	(8aJ	8r
=17	=17	=17	=17	=17
8BB) 8G#X	8BL)	.	8g#XL)	8g#X 8b 8ee
8r	(8e	.	(8cc#X	8r
8r	8d#XJ	.	8bJ	8r
4r	8c#XL	.	8aL	4r
.	8B	.	8g#	.
16EELL	8AJ)	.	8f#XJ)	[8ee
16EEJJ	.	.	.	.
=18	=18	=18	=18	=18
!!linebreak:original
4EE	8G#XL	.	8eL	8eeL]
.	(8B	.	(8g#X	(8gg#X
16AALL	8AJ	.	8f#XJ	8ff#XJ
16AAJJ	.	.	.	.
4AA	8G#L	.	8eL	8eeL
.	8F#X	.	8d#X	8dd#X
16BBLL	8EJ)	.	8c#XJ)	8cc#XJ)
16BBJJ	.	.	.	.
=19	=19	=19	=19	=19
8BBL	(8D#XL	.	(8BL	(8bL
8B	8E	.	8c#X	8cc#X
8BBJ	8F#XJ)	.	8d#XJ	8dd#XJ
8E	8E	.	8e)	8ee)
8r	8r	.	8r	8r
16AALL 16E	16cLL	.	16eLL	16eLL
16AAJJ 16E	16cJJ	.	16eJJ	16eJJ
=20	=20	=20	=20	=20
8AA 8E	8cL	.	8eL	8eL
8r	8c	.	8e	8a
8r	8BJ	.	8eJ	8g#XJ
4r	8dL	.	8fL	8bL
.	8c	.	8e	8a
16AALL 16E	8fJ	.	8g#XJ	8ddJ
16AAJJ 16E	.	.	.	.
=21	=21	=21	=21	=21
8AA 8E	8eL	.	8aL	8ccL
8r	8g#X	.	8dd	8ff
8r	8aJ	.	8ccJ	8eeJ
4r	8fL	.	8g#XL	8ddL
.	8e	.	8a	8cc
16AALL 16E	8dJ	.	8fJ	8bJ
16AAJJ 16E	.	.	.	.
=22	=22	=22	=22	=22
8AAL 8E	8cL	.	8eL	8aL
8E	8e	.	8a	8cc
8AAJ	8cJ	.	8eJ	8bJ
8DDL	8dL	.	8fL	8aL
8D	8A	.	8d	8g
8DDJ	8dJ	.	8dJ	8fJ
=23	=23	=23	=23	=23
4EE	8G#X'L	.	8B'L	[4.e
.	(8G#	.	(8B	.
16ELL	8AJ	.	8cJ	.
16EJJ	.	.	.	.
4E	8BL	.	8dL	4e]
.	8A	.	8c	.
!	!	!	!	!
16ELL	8G#J)	.	8BJ)	16eLL
16EJJ	.	.	.	16eJJ
=24	=24	=24	=24	=24
8AA 8E	8AL	.	8cL	8eL
8r	8c	.	8e	8a
8r	8BJ	.	8eJ	8g#XJ
4r	8dL	.	8fL	8bL
.	8c	.	8e	8a
16AALL 16E	8fJ	.	8g#XJ	8ddJ
16AAJJ 16E	.	.	.	.
=25	=25	=25	=25	=25
4AA 4E	8eL	.	8aL	8ccL
.	8g#X	.	8dd	8ff
16AALL 16E	8aJ	.	8ccJ	8eeJ
16AAJJ 16E	.	.	.	.
4AA 4E	8fL	.	8g#XL	8ddL
.	8e	.	8a	8cc
16AALL 16E	8dJ	.	8fJ	8bJ
16AAJJ 16E	.	.	.	.
=26	=26	=26	=26	=26
4AA 4E	8cL	.	8eL	8aL
.	8e	.	8a	8cc
8AA 8E	8cJ	.	8eJ	8bJ
8DD'L	8dL	.	8fL	8aL
8D'	8A	.	8d	8g
8DD'J	8dJ	.	8dJ	8fJ
=27	=27	=27	=27	=27
!!linebreak:original
8EEL	8G#XL	.	8BL	8eL
8E	8A	.	8c	8r
8EEJ	8BJ	.	8dJ	8eJ
8AA	8A	.	8c	8cL 8e 8a
8r	8r	.	8r	8r
8r	8r	.	8r	[8gJ
=28!|:	=28!|:	=28!|:	=28!|:	=28!|:
(4.G	(8BL	.	(8dL	4.g_
.	8c)	.	8e)	.
.	8d'J	p	8f'J	.
8C)	8c'	.	8e'	8gL]
8r	8r	.	8r	8b'
8r	8r	.	8r	8cc'J
=29	=29	=29	=29	=29
2.r	8D'	.	8f'	8a'L
.	8r	.	8r	8cc#X'
.	8r	.	8r	8dd'J
.	8F'	.	8d'	8f'L
.	8r	.	8r	8g#X'
.	8r	.	8r	8a'J
=30	=30	=30	=30	=30
(4.G	8BL	.	8dL	[4.g
.	8c	p	8e	.
.	8d'J	.	8f'J	.
8C)	8c'	.	8e'	8gL]
8r	8r	.	8r	8b'
8r	8r	.	8r	8cc'J
=31	=31	=31	=31	=31
2.r	8D'	.	8f'	8a'L
.	8r	.	8r	8cc#X'
.	8r	.	8r	8dd'J
.	8F'	.	8d'	8f'L
.	8r	.	8r	8g#X'
.	8r	.	8r	8a'J
=32	=32	=32	=32	=32
(4.G	(8BL	.	(8dL	[4.gn
.	8c)	.	8e)	.
.	8dJ	p	8fJ	.
8C)	8c	.	8e	8gL]
8r	8r	.	8r	8b'
8r	8r	.	8r	8cc'J
=33	=33	=33	=33	=33
(4.E	(8G#XL	.	(8BL	[4.e
.	8A)	p	8c)	.
.	8BJ	.	8dJ	.
8AA)	8A	.	8c	8eL]
8r	8r	.	8r	8g#X'
8r	8r	.	8r	8a'J
=34	=34	=34	=34	=34
(4.D	(8F#XL	.	(8AL	[4.d
.	8G)	.	8B)	.
.	8A'J	p	8c'J	.
8GGL)	8G'L	.	8B'L	8dL]
!	!	!	!	!
8AA'	8c'	.	8c'	8f#X'
8BB'J	8d'J	.	8d'J	8g'J
=35	=35	=35	=35	=35
8C'L	8c'L	.	8c'L	8e'L
8AA'	8c'	.	8e'	8a'
8D'J	8c'J	.	8d'J	8f#X'J
8GG'	8B'	.	8d'	8g'
8r	8r	.	8r	8r
8r	8r	.	8r	[8g
=36:|!	=36:|!	=36:|!	=36:|!	=36:|!
(4.GG	(8BL	.	(8dL	(4.g]
!	!	!LO:DY:a	!	!
.	8c)	fp	8e-X)	.
.	8d'J	.	8f'J	.
8G')	8c'	.	8e-'	8a-XL)
8r	8r	.	8r	8cc'
8r	8r	.	8r	8b'J
=37	=37	=37	=37	=37
!!linebreak:original
2.r	2.r	.	2.r	8dd'L
.	.	.	.	8cc'
.	.	.	.	8ee-X'J
.	.	.	.	8dd'L
.	.	.	.	8ff'
.	.	.	.	8ee-'J
=38	=38	=38	=38	=38
(4.GG	(8cL	.	(8e-XL	(4.a-X
!	!	!LO:DY:a	!	!
.	8d)	fp	8f)	.
.	8e-XJ	.	8gJ	.
8G)	8d	.	8f	8b-XL)
8r	8r	.	8r	8dd'
8r	8r	.	8r	8cc'J
=39	=39	=39	=39	=39
2.r	2.r	.	2.r	8ee-X'L
.	.	.	.	8dd'
.	.	.	.	8ff'J
.	.	.	.	8ee-'L
.	.	.	.	8gg'
.	.	.	.	8ff'J
=40	=40	=40	=40	=40
(4.G	(8fL	.	(8a-XL	(4.b
.	8e-X)	.	8g)	.
.	8d'J	.	8f'J	.
8c)	8c'	.	8e-X'	8cc'L)
8r	8r	.	8r	8dd'
8r	8r	.	8r	8ee-X'J
=41	=41	=41	=41	=41
(4.E-X	(8d-XL	.	(8fL	(4.g
.	8c)	.	8e-X)	.
.	8B-X'J	.	8d-X'J	.
8A-X)	8A-X'	.	8c'	8a-X'L)
8r	8r	.	8r	8b-X'
8r	8r	.	8r	8cc'J
=42	=42	=42	=42	=42
(4.AA-X	(8E-XL	.	(4.c	(4.f#X
.	8D)	.	.	.
.	8C'J	.	.	.
8GG)	8D'	.	8B)	8g'L)
8r	8r	.	8r	8cc#X'
8r	8r	.	8r	8dd'J
=43	=43	=43	=43	=43
(4.AA-X	(8E-XL	.	(4.c	(4.f#X
.	8D)	.	.	.
.	8C'J	.	.	.
8GG)	8D'	.	8B)	8g'L)
8r	8r	.	8r	8cc#X'
8r	8r	.	8r	8dd'J
=44	=44	=44	=44	=44
(4.G	(8BL	.	(8dL	[4.g
.	8c)	.	8e)	.
.	8d'J	.	8f'J	.
8C)	8c'	.	8e'	8gL]
8r	8r	.	8r	8b'
8r	8r	.	8r	8cc'J
=45	=45	=45	=45	=45
!LO:TX:a:t=pizz.	!	!	!	!
8DD	8D'	.	8f'	8a'L
8r	8r	.	8r	8cc#X'
8r	8r	.	8r	8dd'J
8D	8F'	.	8d'	8f'L
8r	8r	.	8r	8g#X'
8r	8r	.	8r	8a'J
=46	=46	=46	=46	=46
!!linebreak:original
!LO:TX:a:t=arco	!	!	!	!
4.G	8BL	.	8dL	[4.g
.	8c	.	8e	.
.	8dJ	.	8fJ	.
8C	8c	.	8e	8gL]
8r	8r	.	8r	8b
8r	8r	.	8r	8ccJ
=47	=47	=47	=47	=47
!LO:TX:a:t=pizz.	!	!	!	!
8DD	8D	.	8f	8aL
8r	8r	.	8r	8cc#X
8r	8r	.	8r	8ddJ
8D	8F	.	8d	8fL
8r	8r	.	8r	8g#X
8r	8r	.	8r	8aJ
=48	=48	=48	=48	=48
4.G	8BL	.	8dL	[4.g
.	8c	fp	8e	.
.	8dJ	.	8fJ	.
!LO:TX:a:t=arco	!	!	!	!
8C	8c	.	8e	8gL]
8r	8r	.	8r	8b
8r	8r	.	8r	8ccJ
=49	=49	=49	=49	=49
4.E	8G#XL	.	8BL	[4.e
.	8A	.	8c	.
.	8BJ	.	8dJ	.
8AA	8A	.	8c	8eL]
8r	8r	.	8r	8g#X
8r	8r	.	8r	8aJ
=50	=50	=50	=50	=50
(4.D	(8F#XL	.	(8AL	[4.d
.	8G)	.	8B)	.
.	8A'J	.	8c'J	.
8GGL)	8G'L	.	8B'L	8dL]
8AA	8c'	.	8c	8f#X
8BB'J	8d'J	.	8d'J	8g'J
=51	=51	=51	=51	=51
8C'L	8c'L	.	8c'L	8e'L
8AA'	8c'	.	8e'	8a'
8D'J	8c'J	.	8d'J	8f#X'J
8GG'	8B'	.	8d'	4g'
8r	8r	.	8r	.
8r	8r	.	8r	[8g
=52:|!	=52:|!	=52:|!	=52:|!	=52:|!
(4.G	(8BL	.	(8dL	4.g_
.	8c)	.	8e)	.
.	8d'J	.	8f'J	.
!LO:TX:a:t=arco	!	!	!	!
8C)	8c'	.	8e'	8gL]
8r	8r	.	8r	8b'
8r	8r	.	8r	8cc'J
=53	=53	=53	=53	=53
4.C	4.B-X	.	4.c 4.g	4.e 4.cc
[4.FF [4.C	[4.C [4.A	.	[4.c [4.a	4.f 4.cc [4.aa
=54	=54	=54	=54	=54
4.FF] 4.C]	4.C] 4.A]	.	4.c] 4.a]	8aaL]
.	.	.	.	8ff'
.	.	.	.	8cc'J
4r	4r	.	4r	8a'L
.	.	.	.	8f'
8r	8r	.	8r	8c'J
=55	=55	=55	=55	=55
4.GG	4.G	.	4.G 4.d	4.B 4.g
[4.CC [4.GG	[4.C [4.G	.	[4.G [4.e	4.c 4.g [4.ee
=56	=56	=56	=56	=56
!!linebreak:original
4.CC] 4.GG]	4.C] 4.G]	.	4.G] 4.e]	8ee'L]
.	.	.	.	8cc'
.	.	.	.	8g'J
4r	4r	.	4r	8e'L
.	.	.	.	8c'
8r	8r	.	8r	8G'J
=57||	=57||	=57||	=57||	=57||
4r	4r	.	4r	4r
8r	8r	.	8r	8r
4r	4r	.	4r	4r
16AALL 16E	16cLL	.	16eLL	16eLL
16AAJJ 16E	16cJJ	.	16eJJ	16eJJ
=58	=58	=58	=58	=58
8AA 8E	8c	.	8e	8e
8r	8r	.	8r	8r
8r	8r	.	8r	8r
4r	4r	.	4r	4r
!LO:TX:b:i:t=cresc.	!LO:TX:b:i:t=cresc.	!	!LO:TX:b:i:t=cresc.	!LO:TX:b:i:t=cresc.
16AALL 16E	16cLL	.	16eLL	16eLL
16AAJJ 16E	16cJJ	.	16eJJ	16eJJ
=59	=59	=59	=59	=59
8AA 8E	8c	.	8e	8e
8r	8r	.	8r	8r
8r	8r	.	8r	8r
4r	4r	.	4r	4r
16AALL 16E	16cLL	.	16eLL	16eLL
16AAJJ 16E	16cJJ	.	16eJJ	16eJJ
=60||	=60||	=60||	=60||	=60||
8AA 8E	8cL	.	8eL	8eL
8r	8c	.	8e	8a
8r	8BJ	.	8eJ	8g#XJ
4r	8dL	.	8fL	8bL
.	8c	<	8e	8a
16AALL 16E	8fJ	.	8g#XJ	8ddJ
16AAJJ 16E	.	.	.	.
=61	=61	=61	=61	=61
8AA 8E	8eL	.	8aL	8ccL
8r	8g#X	.	8dd	8ff
8r	8aJ	.	8ccJ	8eeJ
4r	8fL	.	8g#XL	8ddL
.	8e	.	8a	8cc
16AALL 16E	8dJ	.	8fJ	8bJ
16AAJJ 16E	.	.	.	.
=62	=62	=62	=62	=62
4AA 4E	8cL	.	8eL	8aL
.	8c	.	8e	8cc
8AA 8E	8cJ	.	8eJ	8bJ
4D	8dL	.	8fL	8aL
.	8A	.	8d	8g
8D	8AJ	.	8dJ	8fJ
=63	=63	=63	=63	=63
8E	8G#X'L	.	8B'L	[4.e
!	!	!	!	!
8r	(8G#	.	(8B	.
!	!	!	!	!
8r	8AJ	.	8cJ	.
4r	8BL	.	8dL	4e]
!	!	!LO:DY:a	!	!
.	8A	>	8c	.
!	!	!	!	!
16ELL	8G#J)	.	8BJ)	16eLL
16EJJ	.	.	.	16eJJ
=64	=64	=64	=64	=64
8AA 8E	8AL	.	8cL	8eL
8r	8c	.	8e	8a
8r	8BJ	.	8eJ	8g#XJ
4r	8dL	.	8fL	8bL
.	8c	<	8e	8a
16AALL 16E	8fJ	.	8g#XJ	8ddJ
16AAJJ 16E	.	.	.	.
=65	=65	=65	=65	=65
!!linebreak:original
8AA 8E	8eL	.	8aL	8ccL
8r	8g#X	.	8dd	8ff
8r	8aJ	.	8ccJ	8eeJ
4r	8fL	.	8g#XL	8ddL
.	8e	.	8a	8cc
16AALL 16E	8dJ	.	8fJ	8bJ
16AAJJ 16E	.	.	.	.
=66	=66	=66	=66	=66
8AAL 8E	8cL	.	8eL	8aL
8r	8c	.	8e	8cc
8AAJ	8cJ	.	8eJ	8bJ
8DDL	8dL	.	8fL	8aL
8D	8A	.	8d	8g
8DDJ	8AJ	.	8dJ	8fJ
=67	=67	=67	=67	=67
8EEL	8G#XL	.	8BL	4e
8E	8A	.	8c	.
8EEJ	8BJ	.	8dJ	8e
8AA	8A	.	8c	8a
8r	8r	.	8r	8r
16EELL	16G#LL	.	16eLL	16eLL
16EEJJ	16G#JJ	.	16eJJ	16eJJ
=68||	=68||	=68||	=68||	=68||
4.EE	8G#X'L	.	8e'L	4.ee
.	(8G#	.	(8e	.
.	8F#XJ)	.	8d#XJ)	.
4r	(8AL	.	(8f#XL	4r
.	8G#)	.	8e)	.
16EELL	(8c#XJ	.	(8aJ	16eLL
16EEJJ	.	.	.	16eJJ
=69	=69	=69	=69	=69
4.EE	8BL)	.	8g#XL)	4.ee
.	(8e	.	(8cc#X	.
.	8d#XJ	sf	8bJ	.
!	!	!	!	!
4r	8c#XL	.	8aL	4r
.	8B	.	8g#	.
16EELL	8AJ)	.	8f#XJ)	16eLL
16EEJJ	.	.	.	16eJJ
=70	=70	=70	=70	=70
4EE	8G#X'L	.	8e'L	4ee
.	(8B	.	(8g#X	.
8EE	8AJ	.	8f#XJ	16eLL
.	.	.	.	16eJJ
4AA	8G#L	.	8eL	4ee
.	8F#X	.	8d#X	.
8AA	8EJ)	.	8c#XJ)	16bLL
.	.	.	.	16bJJ
=71	=71	=71	=71	=71
!	!	!	!	!
4BB	(8D#XL	.	8BL	8bbL
.	8E	.	(8c#X	8r
!	!	!	!	!
8BB	8F#XJ	.	8d#XJ	8bbJ
8EEL	8G#XL)	.	8e)	8b 8gg#X 8eee
8r	8r	.	8r	8r
(8EEJ	16G#L	.	16eLL	8r
.	16G#JJ	.	16eJJ	.
=72	=72	=72	=72	=72
8BB) 8G#X	8G#X'L	.	8e'L	8g#X 8b 8ee
8r	(8G#	.	(8e	8r
8r	8F#XJ)	.	8d#XJ)	8r
4r	(8AL	.	(8f#XL	4r
.	8G#)	.	8e)	.
(8EE	(8c#XJ	.	(8aJ	8r
=73	=73	=73	=73	=73
8BB) 8G#X	8BL)	.	8g#XL)	8g#X 8b 8ee
8r	(8e	.	(8cc#X	8r
8r	8d#XJ	.	8bJ	8r
4r	8c#XL	.	8aL	4r
.	8B	.	8g#	.
16EELL	8AJ)	.	8f#XJ)	[8ee
16EEJJ	.	.	.	.
=74	=74	=74	=74	=74
!!linebreak:original
4EE	8G#XL	.	8eL	8eeL]
.	(8B	.	(8g#X	(8gg#X
16AALL	8AJ	.	8f#XJ	8ff#XJ
16AAJJ	.	.	.	.
4AA	8G#L	.	8eL	8eeL
.	8F#X	.	8d#X	8dd#X
16BBLL	8EJ)	.	8c#XJ)	8cc#XJ)
16BBJJ	.	.	.	.
=75	=75	=75	=75	=75
8BBL	(8D#XL	.	(8BL	(8bL
8B	8E	.	8c#X	8cc#X
8BBJ	8F#XJ	.	8d#XJ	8dd#XJ
8E	8E)	.	8e)	8eeL)
16AALL 16E	8r	.	8r	8r
16AAJJ 16E	.	.	.	.
8r	8r	.	16eLL	16eL
.	.	.	16eJJ	16eJJ
=76||	=76||	=76||	=76||	=76||
8AA 8E	8cL	.	8eL	8eL
8r	8c	.	8e	8a
8r	8BJ	.	8eJ	8g#XJ
4r	8dL	.	8fL	8bL
.	8c	.	8e	8a
16AALL 16E	8fJ	.	8g#XJ	8ddJ
16AAJJ 16E	.	.	.	.
=77	=77	=77	=77	=77
8AA 8E	8eL	.	8aL	8ccL
8r	8g#X	.	8dd	8ff
8r	8aJ	.	8ccJ	8eeJ
4r	8fL	.	8g#XL	8ddL
.	8e	.	8a	8cc
16AALL 16E	8dJ	.	8fJ	8bJ
16AAJJ 16E	.	.	.	.
=78	=78	=78	=78	=78
8AAL 8E	8cL	.	8eL	8aL
8E	8e	.	8a	8cc
8AAJ	8cJ	.	8eJ	8bJ
8DDL	8dL	.	8fL	8aL
8D	8A	.	8d	8g
8DDJ	8dJ	.	8dJ	8fJ
=79	=79	=79	=79	=79
4EE	8G#XL	.	8BL	[4.e
.	(8G#	.	(8B	.
16ELL	8AJ	.	8cJ	.
16EJJ	.	.	.	.
4E	8BL	.	8dL	4e]
.	8A	.	8c	.
!	!	!	!	!
16ELL	8G#J)	.	8BJ)	16eLL
16EJJ	.	.	.	16eJJ
=80	=80	=80	=80	=80
8AA 8E	8AL	.	8cL	8eL
!	!	!	!	!
8r	8c	.	8e	8a
8r	8BJ	.	8eJ	8g#XJ
4r	8dL	.	8fL	8bL
.	8c	.	8e	8a
16AALL 16E	8fJ	.	8g#XJ	8ddJ
16AAJJ 16E	.	.	.	.
=81	=81	=81	=81	=81
8AA 8E	8eL	.	8aL	8ccL
8r	8g#X	.	8dd	8ff
16AALL 16E	8aJ	.	8ccJ	8eeJ
16AAJJ 16E	.	.	.	.
8AA 8E	8fL	.	8g#XL	8ddL
8r	8e	.	8a	8cc
16AALL 16E	8dJ	.	8fJ	8bJ
16AAJJ 16E	.	.	.	.
=82	=82	=82	=82	=82
8AAL 8E	8cL	.	8eL	8aL
8r	8e	.	8a	8cc
8AAJ 8E	8cJ	.	8eJ	8bJ
8DDL	8dL	.	8fL	8aL
8D	8A	.	8d	8g
8DDJ	8dJ	.	8dJ	8fJ
=83	=83	=83	=83	=83
8EEL	(8G#XL	.	(8BL	8eL
!	!	!	!	!
8E	8A	.	8c	8r
8EEJ	8BJ	.	8dJ	8eJ
!LO:TX:b:i:t=attaca	!	!	!	!
8AA	8A)	.	8c)	8c 8e 8a
8r	8r	.	8r	8r
8r	8r	.	8r	8r
==	==	==	==	==
*-	*-	*-	*-	*-
!!!system-decoration: [(s1,s2,s3,s4)]
